build/img/sprite/icon-maindirection-hotel.svg

<svg width="85" height="85" viewBox="0 0 85 85" fill="none" xmlns="http://www.w3.org/2000/svg">
<circle cx="42.5" cy="42.5" r="42" stroke="white"/>
<path d="M62 63.5001V35.0001C62 34.6558 61.7656 34.3559 61.4316 34.2724L47 30.6641V26.7501C47 26.4102 46.7715 26.1132 46.4434 26.0253L23.9434 20.0253C23.7185 19.9653 23.4779 20.0133 23.2933 20.1554C23.1084 20.2971 23 20.5168 23 20.7501V63.5001H20V65.0001H65V63.5001H62ZM24.5 21.7249L45.5 27.3243V63.5001H41.75V55.2501C41.75 54.8359 41.4142 54.5001 41 54.5001H29C28.5858 54.5001 28.25 54.8359 28.25 55.2501V63.5001H24.5V21.7249ZM29.75 56.0001H34.25V63.5001H29.75V56.0001ZM35.75 63.5001V56.0001H40.25V63.5001H35.75ZM51.5 63.5001V57.5001H56V63.5001H51.5ZM57.5 63.5001V56.7501C57.5 56.3359 57.1642 56.0001 56.75 56.0001H50.75C50.3358 56.0001 50 56.3359 50 56.7501V63.5001H47V32.2107L60.5 35.5857V63.5001H57.5Z" fill="white"/>
<path d="M29.75 51.5009H32.75C33.1642 51.5009 33.5 51.165 33.5 50.7509V47.7509C33.5 47.3367 33.1642 47.0009 32.75 47.0009H29.75C29.3358 47.0009 29 47.3367 29 47.7509V50.7509C29 51.165 29.3358 51.5009 29.75 51.5009ZM30.5 48.5009H32V50.0009H30.5V48.5009Z" fill="white"/>
<path d="M37.25 51.5009H40.25C40.6642 51.5009 41 51.165 41 50.7509V47.7509C41 47.3367 40.6642 47.0009 40.25 47.0009H37.25C36.8358 47.0009 36.5 47.3367 36.5 47.7509V50.7509C36.5 51.165 36.8358 51.5009 37.25 51.5009ZM38 48.5009H39.5V50.0009H38V48.5009Z" fill="white"/>
<path d="M52.25 48.5009H49.25C48.8358 48.5009 48.5 48.8367 48.5 49.2509V52.2509C48.5 52.665 48.8358 53.0009 49.25 53.0009H52.25C52.6642 53.0009 53 52.665 53 52.2509V49.2509C53 48.8367 52.6642 48.5009 52.25 48.5009ZM51.5 51.5009H50V50.0009H51.5V51.5009Z" fill="white"/>
<path d="M58.25 48.5009H55.25C54.8358 48.5009 54.5 48.8367 54.5 49.2509V52.2509C54.5 52.665 54.8358 53.0009 55.25 53.0009H58.25C58.6642 53.0009 59 52.665 59 52.2509V49.2509C59 48.8367 58.6642 48.5009 58.25 48.5009ZM57.5 51.5009H56V50.0009H57.5V51.5009Z" fill="white"/>
<path d="M52.25 42.5009H49.25C48.8358 42.5009 48.5 42.8367 48.5 43.2509V46.2509C48.5 46.665 48.8358 47.0009 49.25 47.0009H52.25C52.6642 47.0009 53 46.665 53 46.2509V43.2509C53 42.8367 52.6642 42.5009 52.25 42.5009ZM51.5 45.5009H50V44.0009H51.5V45.5009Z" fill="white"/>
<path d="M58.25 42.5009H55.25C54.8358 42.5009 54.5 42.8367 54.5 43.2509V46.2509C54.5 46.665 54.8358 47.0009 55.25 47.0009H58.25C58.6642 47.0009 59 46.665 59 46.2509V43.2509C59 42.8367 58.6642 42.5009 58.25 42.5009ZM57.5 45.5009H56V44.0009H57.5V45.5009Z" fill="white"/>
<path d="M52.25 36.5009H49.25C48.8358 36.5009 48.5 36.8367 48.5 37.2509V40.2508C48.5 40.665 48.8358 41.0008 49.25 41.0008H52.25C52.6642 41.0008 53 40.665 53 40.2508V37.2509C53 36.8367 52.6642 36.5009 52.25 36.5009ZM51.5 39.5009H50V38.0009H51.5V39.5009Z" fill="white"/>
<path d="M58.25 36.5009H55.25C54.8358 36.5009 54.5 36.8367 54.5 37.2509V40.2508C54.5 40.665 54.8358 41.0008 55.25 41.0008H58.25C58.6642 41.0008 59 40.665 59 40.2508V37.2509C59 36.8367 58.6642 36.5009 58.25 36.5009ZM57.5 39.5009H56V38.0009H57.5V39.5009Z" fill="white"/>
<path d="M29.75 45.5009H32.75C33.1642 45.5009 33.5 45.165 33.5 44.7509V41.7509C33.5 41.3367 33.1642 41.0009 32.75 41.0009H29.75C29.3358 41.0009 29 41.3367 29 41.7509V44.7509C29 45.165 29.3358 45.5009 29.75 45.5009ZM30.5 42.5009H32V44.0009H30.5V42.5009Z" fill="white"/>
<path d="M37.25 45.5009H40.25C40.6642 45.5009 41 45.165 41 44.7509V41.7509C41 41.3367 40.6642 41.0009 40.25 41.0009H37.25C36.8358 41.0009 36.5 41.3367 36.5 41.7509V44.7509C36.5 45.165 36.8358 45.5009 37.25 45.5009ZM38 42.5009H39.5V44.0009H38V42.5009Z" fill="white"/>
<path d="M29.75 39.5009H32.75C33.1642 39.5009 33.5 39.165 33.5 38.7509V35.7509C33.5 35.3367 33.1642 35.0009 32.75 35.0009H29.75C29.3358 35.0009 29 35.3367 29 35.7509V38.7509C29 39.165 29.3358 39.5009 29.75 39.5009ZM30.5 36.5009H32V38.0009H30.5V36.5009Z" fill="white"/>
<path d="M37.25 39.5009H40.25C40.6642 39.5009 41 39.165 41 38.7509V35.7509C41 35.3367 40.6642 35.0009 40.25 35.0009H37.25C36.8358 35.0009 36.5 35.3367 36.5 35.7509V38.7509C36.5 39.165 36.8358 39.5009 37.25 39.5009ZM38 36.5009H39.5V38.0009H38V36.5009Z" fill="white"/>
<path d="M29.75 33.5009H32.75C33.1642 33.5009 33.5 33.165 33.5 32.7509V29.7509C33.5 29.3367 33.1642 29.0009 32.75 29.0009H29.75C29.3358 29.0009 29 29.3367 29 29.7509V32.7509C29 33.165 29.3358 33.5009 29.75 33.5009ZM30.5 30.5009H32V32.0009H30.5V30.5009Z" fill="white"/>
<path d="M37.25 33.5009H40.25C40.6642 33.5009 41 33.165 41 32.7509V29.7509C41 29.3367 40.6642 29.0009 40.25 29.0009H37.25C36.8358 29.0009 36.5 29.3367 36.5 29.7509V32.7509C36.5 33.165 36.8358 33.5009 37.25 33.5009ZM38 30.5009H39.5V32.0009H38V30.5009Z" fill="white"/>
</svg>

<svg width="85" height="85" fill="none" xmlns="http://www.w3.org/2000/svg"><circle cx="42.5" cy="42.5" r="42" stroke="#fff"/><path d="M62 63.5V35a.75.75 0 00-.568-.728L47 30.664V26.75a.75.75 0 00-.557-.725l-22.5-6a.75.75 0 00-.943.725V63.5h-3V65h45v-1.5h-3zM24.5 21.725l21 5.6V63.5h-3.75v-8.25a.75.75 0 00-.75-.75H29a.75.75 0 00-.75.75v8.25H24.5V21.725zM29.75 56h4.5v7.5h-4.5V56zm6 7.5V56h4.5v7.5h-4.5zm15.75 0v-6H56v6h-4.5zm6 0v-6.75a.75.75 0 00-.75-.75h-6a.75.75 0 00-.75.75v6.75h-3V32.21l13.5 3.376V63.5h-3z" fill="#fff"/><path d="M29.75 51.5h3a.75.75 0 00.75-.75v-3a.75.75 0 00-.75-.75h-3a.75.75 0 00-.75.75v3c0 .415.336.75.75.75zm.75-3H32V50h-1.5v-1.5zm6.75 3h3a.75.75 0 00.75-.75v-3a.75.75 0 00-.75-.75h-3a.75.75 0 00-.75.75v3c0 .415.336.75.75.75zm.75-3h1.5V50H38v-1.5zm14.25 0h-3a.75.75 0 00-.75.75v3c0 .415.336.75.75.75h3a.75.75 0 00.75-.75v-3a.75.75 0 00-.75-.75zm-.75 3H50V50h1.5v1.5zm6.75-3h-3a.75.75 0 00-.75.75v3c0 .415.336.75.75.75h3a.75.75 0 00.75-.75v-3a.75.75 0 00-.75-.75zm-.75 3H56V50h1.5v1.5zm-5.25-9h-3a.75.75 0 00-.75.75v3c0 .415.336.75.75.75h3a.75.75 0 00.75-.75v-3a.75.75 0 00-.75-.75zm-.75 3H50V44h1.5v1.5zm6.75-3h-3a.75.75 0 00-.75.75v3c0 .415.336.75.75.75h3a.75.75 0 00.75-.75v-3a.75.75 0 00-.75-.75zm-.75 3H56V44h1.5v1.5zm-5.25-9h-3a.75.75 0 00-.75.75v3c0 .415.336.75.75.75h3a.75.75 0 00.75-.75v-3a.75.75 0 00-.75-.75zm-.75 3H50V38h1.5v1.5zm6.75-3h-3a.75.75 0 00-.75.75v3c0 .415.336.75.75.75h3a.75.75 0 00.75-.75v-3a.75.75 0 00-.75-.75zm-.75 3H56V38h1.5v1.5zm-27.75 6h3a.75.75 0 00.75-.75v-3a.75.75 0 00-.75-.75h-3a.75.75 0 00-.75.75v3c0 .415.336.75.75.75zm.75-3H32V44h-1.5v-1.5zm6.75 3h3a.75.75 0 00.75-.75v-3a.75.75 0 00-.75-.75h-3a.75.75 0 00-.75.75v3c0 .415.336.75.75.75zm.75-3h1.5V44H38v-1.5zm-8.25-3h3a.75.75 0 00.75-.75v-3a.75.75 0 00-.75-.75h-3a.75.75 0 00-.75.75v3c0 .415.336.75.75.75zm.75-3H32V38h-1.5v-1.5zm6.75 3h3a.75.75 0 00.75-.75v-3a.75.75 0 00-.75-.75h-3a.75.75 0 00-.75.75v3c0 .415.336.75.75.75zm.75-3h1.5V38H38v-1.5zm-8.25-3h3a.75.75 0 00.75-.75v-3a.75.75 0 00-.75-.75h-3a.75.75 0 00-.75.75v3c0 .415.336.75.75.75zm.75-3H32V32h-1.5v-1.5zm6.75 3h3a.75.75 0 00.75-.75v-3a.75.75 0 00-.75-.75h-3a.75.75 0 00-.75.75v3c0 .415.336.75.75.75zm.75-3h1.5V32H38v-1.5z" fill="#fff"/></svg>
